X:1
T:Sherborne (Monk), 77.77.77
T:William Henry Monk, 1861
T:Sherborne (Monk), 77.77.77
T:Public Domain
C:William Henry Monk, 1861
Z:Public Domain
%%score ( 1 2 ) ( 3 4 )
L:1/8
M:4/4
K:Bb
V:1 treble 
V:2 treble 
V:3 bass 
V:4 bass 
V:1
 [DF]2 [EG]2 [FB]2 [DB]2 | [Gc]2 [Fc]2 [Fd]4 | [DB]2 [Fc]2 [Fd]2 [Ge]2 | d2 z E [DB]4 | %4
 [Fc]2 [^Fd]2 [GB]2 [Gc]2 | [GA]2 [FA]2 F2 =E2 | [FA]2 [^FA]2 [GB]2 [Gc]2 | [GB]2 [^FA]2 G4 | %8
 [B,F]2 [EG]2 [FB]2 [Fd]2 | [Ec]2 DE [FA]4 | [DB]2 [FB]2 [Gc]2 [Fd]2 | [Ee]2 FE [DB]4 |] %12
V:2
 x8 | x8 | x8 | F3 c2 x3 | x8 | x4 G4 | x8 | x4 G4 | x8 | x2 B2 x4 | x8 | x2 c2 x4 |] %12
V:3
 [B,,B,]2 [E,B,]2 [D,B,]2 [B,,B,]2 | [E,B,]2 [F,A,]2 [B,,B,]4 | [G,B,]2 [F,A,]2 B,2 [E,B,]2 | %3
 [F,B,]2 [F,A,]2 [B,,B,]4 | [F,A,]2 [D,D]2 [G,D]2 [=E,C]2 | F,G,A,B, C4 | %6
 [F,C]2 [C,D]2 [G,D]2 [C,E]2 | D,2 z C [G,B,]4 | [D,B,]2 [E,B,]2 [D,B,]2 [B,,B,]2 | %9
 [E,G,]2 [G,B,]2 [F,C]4 | [G,B,]2 [D,B,]2 [E,B,]2 [D,B,]2 | [C,G,]2 [F,A,]2 [B,,B,]4 |] %12
V:4
 x8 | x8 | x4 B,2 x2 | x8 | x8 | C2 C2 C4 | x8 | D3 D,2 x3 | x8 | x8 | x8 | x8 |] %12

